public/icon/svg/Reddit.svg

<?xml version="1.0" encoding="UTF-8"?>
<svg width="1024px" height="1024px" viewBox="0 0 1024 1024" version="1.1" xmlns="http://www.w3.org/2000/svg" xmlns:xlink="http://www.w3.org/1999/xlink">
    <title>Reddit</title>
    <defs>
        <radialGradient cx="51.0507534%" cy="19.9946471%" fx="51.0507534%" fy="19.9946471%" r="101.070579%" id="radialGradient-1">
            <stop stop-color="#FEFFFF" offset="0%"></stop>
            <stop stop-color="#FEFFFF" offset="40%"></stop>
            <stop stop-color="#F9FCFC" offset="51%"></stop>
            <stop stop-color="#EDF3F5" offset="62%"></stop>
            <stop stop-color="#DEE9EC" offset="70%"></stop>
            <stop stop-color="#D8E4E8" offset="72%"></stop>
            <stop stop-color="#CCD8DF" offset="76%"></stop>
            <stop stop-color="#C8D5DD" offset="80%"></stop>
            <stop stop-color="#CCD6DE" offset="83%"></stop>
            <stop stop-color="#D8DBE2" offset="85%"></stop>
            <stop stop-color="#EDE3E9" offset="88%"></stop>
            <stop stop-color="#FFEBEF" offset="90%"></stop>
        </radialGradient>
        <radialGradient cx="51.0507534%" cy="-162.093577%" fx="51.0507534%" fy="-162.093577%" r="101.070579%" id="radialGradient-2">
            <stop stop-color="#FEFFFF" offset="0%"></stop>
            <stop stop-color="#FEFFFF" offset="40%"></stop>
            <stop stop-color="#F9FCFC" offset="51%"></stop>
            <stop stop-color="#EDF3F5" offset="62%"></stop>
            <stop stop-color="#DEE9EC" offset="70%"></stop>
            <stop stop-color="#D8E4E8" offset="72%"></stop>
            <stop stop-color="#CCD8DF" offset="76%"></stop>
            <stop stop-color="#C8D5DD" offset="80%"></stop>
            <stop stop-color="#CCD6DE" offset="83%"></stop>
            <stop stop-color="#D8DBE2" offset="85%"></stop>
            <stop stop-color="#EDE3E9" offset="88%"></stop>
            <stop stop-color="#FFEBEF" offset="90%"></stop>
        </radialGradient>
        <radialGradient cx="51.0763889%" cy="10.0305556%" fx="51.0763889%" fy="10.0305556%" r="142.388889%" gradientTransform="translate(0.5108, 0.1003), scale(0.75, 1), translate(-0.5108, -0.1003)" id="radialGradient-3">
            <stop stop-color="#FEFFFF" offset="0%"></stop>
            <stop stop-color="#FEFFFF" offset="40%"></stop>
            <stop stop-color="#F9FCFC" offset="51%"></stop>
            <stop stop-color="#EDF3F5" offset="62%"></stop>
            <stop stop-color="#DEE9EC" offset="70%"></stop>
            <stop stop-color="#D8E4E8" offset="72%"></stop>
            <stop stop-color="#CCD8DF" offset="76%"></stop>
            <stop stop-color="#C8D5DD" offset="80%"></stop>
            <stop stop-color="#CCD6DE" offset="83%"></stop>
            <stop stop-color="#D8DBE2" offset="85%"></stop>
            <stop stop-color="#EDE3E9" offset="88%"></stop>
            <stop stop-color="#FFEBEF" offset="90%"></stop>
        </radialGradient>
        <radialGradient cx="52.6097698%" cy="71.2504306%" fx="52.6097698%" fy="71.2504306%" r="53.6127747%" gradientTransform="translate(0.5261, 0.7125), scale(1, 0.8834), translate(-0.5261, -0.7125)" id="radialGradient-4">
            <stop stop-color="#FF6600" offset="0%"></stop>
            <stop stop-color="#FF4500" offset="50%"></stop>
            <stop stop-color="#FC4301" offset="70%"></stop>
            <stop stop-color="#F43F07" offset="82%"></stop>
            <stop stop-color="#E53812" offset="92%"></stop>
            <stop stop-color="#D4301F" offset="100%"></stop>
        </radialGradient>
        <radialGradient cx="47.7325846%" cy="71.2504306%" fx="47.7325846%" fy="71.2504306%" r="53.6127747%" gradientTransform="translate(0.4773, 0.7125), scale(1, 0.8834), rotate(180), translate(-0.4773, -0.7125)" id="radialGradient-5">
            <stop stop-color="#FF6600" offset="0%"></stop>
            <stop stop-color="#FF4500" offset="50%"></stop>
            <stop stop-color="#FC4301" offset="70%"></stop>
            <stop stop-color="#F43F07" offset="82%"></stop>
            <stop stop-color="#E53812" offset="92%"></stop>
            <stop stop-color="#D4301F" offset="100%"></stop>
        </radialGradient>
        <radialGradient cx="49.7577144%" cy="113.96582%" fx="49.7577144%" fy="113.96582%" r="209.237875%" gradientTransform="translate(0.4976, 1.1397), scale(0.405, 1), translate(-0.4976, -1.1397)" id="radialGradient-6">
            <stop stop-color="#172E35" offset="0%"></stop>
            <stop stop-color="#0E1C21" offset="29%"></stop>
            <stop stop-color="#030708" offset="73%"></stop>
            <stop stop-color="#000000" offset="100%"></stop>
        </radialGradient>
        <radialGradient cx="51.0912143%" cy="3.52881925%" fx="51.0912143%" fy="3.52881925%" r="111.275881%" id="radialGradient-7">
            <stop stop-color="#FEFFFF" offset="0%"></stop>
            <stop stop-color="#FEFFFF" offset="40%"></stop>
            <stop stop-color="#F9FCFC" offset="51%"></stop>
            <stop stop-color="#EDF3F5" offset="62%"></stop>
            <stop stop-color="#DEE9EC" offset="70%"></stop>
            <stop stop-color="#D8E4E8" offset="72%"></stop>
            <stop stop-color="#CCD8DF" offset="76%"></stop>
            <stop stop-color="#C8D5DD" offset="80%"></stop>
            <stop stop-color="#CCD6DE" offset="83%"></stop>
            <stop stop-color="#D8DBE2" offset="85%"></stop>
            <stop stop-color="#EDE3E9" offset="88%"></stop>
            <stop stop-color="#FFEBEF" offset="90%"></stop>
        </radialGradient>
        <radialGradient cx="83.1965968%" cy="87.7355477%" fx="83.1965968%" fy="87.7355477%" r="104.120089%" gradientTransform="translate(0.832, 0.8774), scale(0.9514, 1), translate(-0.832, -0.8774)" id="radialGradient-8">
            <stop stop-color="#7A9299" offset="48%"></stop>
            <stop stop-color="#172E35" offset="67%"></stop>
            <stop stop-color="#000000" offset="75%"></stop>
            <stop stop-color="#172E35" offset="82%"></stop>
        </radialGradient>
    </defs>
    <g id="ICON-新版方图标" stroke="none" stroke-width="1" fill="none" fill-rule="evenodd">
        <g id="Reddit" transform="translate(0, -0.0008)">
            <rect id="蒙版路径" fill="#FFFFFF" x="0" y="0" width="1024" height="1024"></rect>
            <g id="编组" transform="translate(142, 142.0008)" fill-rule="nonzero">
                <path d="M370,0 C165.643519,0 0,165.643519 0,370 C0,472.161111 41.4194444,564.661111 108.362037,631.637963 L37.8907407,702.109259 C23.912963,716.087037 33.8138889,740 53.5814815,740 L370,740 C574.356481,740 740,574.356481 740,370 C740,165.643519 574.356481,0 370,0 Z" id="路径" fill="#FF4500"></path>
                <circle id="椭圆形" fill="url(#radialGradient-1)" cx="579.735185" cy="366.505556" r="86.4018519"></circle>
                <circle id="椭圆形" fill="url(#radialGradient-2)" cx="160.264815" cy="366.505556" r="86.4018519"></circle>
                <ellipse id="椭圆形" fill="url(#radialGradient-3)" cx="370.205556" cy="440.711111" rx="246.666667" ry="185"></ellipse>
                <path d="M297.301852,423.033333 C295.862963,454.140741 275.067593,465.446296 250.846296,465.446296 C226.625,465.446296 208.159259,448.556481 209.598148,417.449074 C211.037037,386.341667 231.832407,365.991667 256.053704,365.991667 C280.275,365.991667 298.740741,391.960185 297.301852,423.067593 L297.301852,423.033333 Z" id="路径" fill="url(#radialGradient-4)"></path>
                <path d="M443.143519,423.033333 C444.582407,454.140741 465.377778,465.446296 489.599074,465.446296 C513.82037,465.446296 532.286111,448.556481 530.847222,417.449074 C529.408333,386.341667 508.612963,365.991667 484.391667,365.991667 C460.17037,365.991667 441.70463,391.960185 443.143519,423.067593 L443.143519,423.033333 Z" id="路径" fill="url(#radialGradient-5)"></path>
                <ellipse id="椭圆形" fill="#FFC49C" cx="272.806481" cy="398.675" rx="9.59259259" ry="10.4490741"></ellipse>
                <ellipse id="椭圆形" fill="#FFC49C" cx="500.90463" cy="398.675" rx="9.59259259" ry="10.4490741"></ellipse>
                <path d="M370.205556,489.633333 C340.194444,489.633333 311.416667,491.106481 284.831481,493.812963 C280.275,494.258333 277.397222,498.986111 279.178704,503.2 C294.081481,538.79537 329.231481,563.80463 370.205556,563.80463 C411.17963,563.80463 446.363889,538.79537 461.232407,503.2 C463.013889,498.986111 460.101852,494.258333 455.57963,493.812963 C428.960185,491.106481 400.216667,489.633333 370.205556,489.633333 L370.205556,489.633333 Z" id="路径" fill="url(#radialGradient-6)"></path>
                <circle id="椭圆形" fill="url(#radialGradient-7)" cx="505.289815" cy="169.343519" r="61.2212963"></circle>
                <path d="M369.314815,263.522222 C361.983333,263.522222 356.056481,260.473148 356.056481,255.74537 C356.056481,200.896296 400.696296,156.256481 455.54537,156.256481 C462.876852,156.256481 468.803704,162.183333 468.803704,169.514815 C468.803704,176.846296 462.876852,182.773148 455.54537,182.773148 C415.325,182.773148 382.607407,215.490741 382.607407,255.711111 C382.607407,260.438889 376.680556,263.487963 369.349074,263.487963 L369.314815,263.522222 Z" id="路径" fill="url(#radialGradient-8)"></path>
                <path d="M215.216667,420.189815 C216.552778,390.863889 236.046296,371.678704 258.691667,371.678704 C280.137963,371.678704 296.719444,393.57037 297.336111,420.772222 C297.918519,390.35 279.761111,365.991667 256.053704,365.991667 C232.346296,365.991667 211.037037,386.718519 209.598148,418.065741 C208.159259,449.412963 226.625,465.446296 250.846296,465.446296 L252.627778,465.446296 C230.564815,464.898148 213.914815,449.036111 215.250926,420.224074 L215.216667,420.189815 Z M525.194444,420.189815 C523.858333,390.863889 504.364815,371.678704 481.719444,371.678704 C460.273148,371.678704 443.691667,393.57037 443.075,420.772222 C442.492593,390.35 460.65,365.991667 484.357407,365.991667 C508.578704,365.991667 529.374074,386.718519 530.812963,418.065741 C532.251852,449.412963 513.786111,465.446296 489.564815,465.446296 L487.783333,465.446296 C509.846296,464.898148 526.496296,449.036111 525.160185,420.224074 L525.194444,420.189815 Z" id="形状" fill="#842123"></path>
            </g>
        </g>
    </g>
</svg>

<svg xmlns="http://www.w3.org/2000/svg" width="1024" height="1024"><defs><radialGradient id="a" cx="51.051%" cy="19.995%" r="101.071%" fx="51.051%" fy="19.995%"><stop offset="0%" stop-color="#FEFFFF"/><stop offset="40%" stop-color="#FEFFFF"/><stop offset="51%" stop-color="#F9FCFC"/><stop offset="62%" stop-color="#EDF3F5"/><stop offset="70%" stop-color="#DEE9EC"/><stop offset="72%" stop-color="#D8E4E8"/><stop offset="76%" stop-color="#CCD8DF"/><stop offset="80%" stop-color="#C8D5DD"/><stop offset="83%" stop-color="#CCD6DE"/><stop offset="85%" stop-color="#D8DBE2"/><stop offset="88%" stop-color="#EDE3E9"/><stop offset="90%" stop-color="#FFEBEF"/></radialGradient><radialGradient id="b" cx="51.051%" cy="-162.094%" r="101.071%" fx="51.051%" fy="-162.094%"><stop offset="0%" stop-color="#FEFFFF"/><stop offset="40%" stop-color="#FEFFFF"/><stop offset="51%" stop-color="#F9FCFC"/><stop offset="62%" stop-color="#EDF3F5"/><stop offset="70%" stop-color="#DEE9EC"/><stop offset="72%" stop-color="#D8E4E8"/><stop offset="76%" stop-color="#CCD8DF"/><stop offset="80%" stop-color="#C8D5DD"/><stop offset="83%" stop-color="#CCD6DE"/><stop offset="85%" stop-color="#D8DBE2"/><stop offset="88%" stop-color="#EDE3E9"/><stop offset="90%" stop-color="#FFEBEF"/></radialGradient><radialGradient id="c" cx="51.076%" cy="10.031%" r="142.389%" fx="51.076%" fy="10.031%" gradientTransform="matrix(.75 0 0 1 .128 0)"><stop offset="0%" stop-color="#FEFFFF"/><stop offset="40%" stop-color="#FEFFFF"/><stop offset="51%" stop-color="#F9FCFC"/><stop offset="62%" stop-color="#EDF3F5"/><stop offset="70%" stop-color="#DEE9EC"/><stop offset="72%" stop-color="#D8E4E8"/><stop offset="76%" stop-color="#CCD8DF"/><stop offset="80%" stop-color="#C8D5DD"/><stop offset="83%" stop-color="#CCD6DE"/><stop offset="85%" stop-color="#D8DBE2"/><stop offset="88%" stop-color="#EDE3E9"/><stop offset="90%" stop-color="#FFEBEF"/></radialGradient><radialGradient id="d" cx="52.61%" cy="71.25%" r="53.613%" fx="52.61%" fy="71.25%" gradientTransform="matrix(1 0 0 .8834 0 .083)"><stop offset="0%" stop-color="#F60"/><stop offset="50%" stop-color="#FF4500"/><stop offset="70%" stop-color="#FC4301"/><stop offset="82%" stop-color="#F43F07"/><stop offset="92%" stop-color="#E53812"/><stop offset="100%" stop-color="#D4301F"/></radialGradient><radialGradient id="e" cx="47.733%" cy="71.25%" r="53.613%" fx="47.733%" fy="71.25%" gradientTransform="matrix(-1 0 0 -.8834 .955 1.342)"><stop offset="0%" stop-color="#F60"/><stop offset="50%" stop-color="#FF4500"/><stop offset="70%" stop-color="#FC4301"/><stop offset="82%" stop-color="#F43F07"/><stop offset="92%" stop-color="#E53812"/><stop offset="100%" stop-color="#D4301F"/></radialGradient><radialGradient id="f" cx="49.758%" cy="113.966%" r="209.238%" fx="49.758%" fy="113.966%" gradientTransform="matrix(.405 0 0 1 .296 0)"><stop offset="0%" stop-color="#172E35"/><stop offset="29%" stop-color="#0E1C21"/><stop offset="73%" stop-color="#030708"/><stop offset="100%"/></radialGradient><radialGradient id="g" cx="51.091%" cy="3.529%" r="111.276%" fx="51.091%" fy="3.529%"><stop offset="0%" stop-color="#FEFFFF"/><stop offset="40%" stop-color="#FEFFFF"/><stop offset="51%" stop-color="#F9FCFC"/><stop offset="62%" stop-color="#EDF3F5"/><stop offset="70%" stop-color="#DEE9EC"/><stop offset="72%" stop-color="#D8E4E8"/><stop offset="76%" stop-color="#CCD8DF"/><stop offset="80%" stop-color="#C8D5DD"/><stop offset="83%" stop-color="#CCD6DE"/><stop offset="85%" stop-color="#D8DBE2"/><stop offset="88%" stop-color="#EDE3E9"/><stop offset="90%" stop-color="#FFEBEF"/></radialGradient><radialGradient id="h" cx="83.197%" cy="87.736%" r="104.12%" fx="83.197%" fy="87.736%" gradientTransform="matrix(.9514 0 0 1 .04 0)"><stop offset="48%" stop-color="#7A9299"/><stop offset="67%" stop-color="#172E35"/><stop offset="75%"/><stop offset="82%" stop-color="#172E35"/></radialGradient></defs><g fill="none" fill-rule="evenodd"><path fill="#FFF" d="M0 0h1024v1024H0z"/><g fill-rule="nonzero" transform="translate(142 142)"><path fill="#FF4500" d="M370 0C165.644 0 0 165.644 0 370c0 102.161 41.42 194.661 108.362 261.638l-70.471 70.471C23.913 716.087 33.814 740 53.58 740H370c204.356 0 370-165.644 370-370S574.356 0 370 0"/><circle cx="579.735" cy="366.506" r="86.402" fill="url(#a)"/><circle cx="160.265" cy="366.506" r="86.402" fill="url(#b)"/><ellipse cx="370.206" cy="440.711" fill="url(#c)" rx="246.667" ry="185"/><path fill="url(#d)" d="M297.302 423.033c-1.439 31.108-22.234 42.413-46.456 42.413-24.221 0-42.687-16.89-41.248-47.997s22.234-51.457 46.456-51.457c24.221 0 42.687 25.968 41.248 57.076z"/><path fill="url(#e)" d="M443.144 423.033c1.438 31.108 22.234 42.413 46.455 42.413 24.221 0 42.687-16.89 41.248-47.997s-22.234-51.457-46.455-51.457c-24.222 0-42.687 25.968-41.248 57.076z"/><ellipse cx="272.806" cy="398.675" fill="#FFC49C" rx="9.593" ry="10.449"/><ellipse cx="500.905" cy="398.675" fill="#FFC49C" rx="9.593" ry="10.449"/><path fill="url(#f)" d="M370.206 489.633c-30.012 0-58.79 1.473-85.375 4.18-4.556.445-7.434 5.173-5.652 9.387 14.902 35.595 50.052 60.605 91.027 60.605 40.974 0 76.158-25.01 91.026-60.605 1.782-4.214-1.13-8.942-5.652-9.387-26.62-2.707-55.363-4.18-85.374-4.18"/><circle cx="505.29" cy="169.344" r="61.221" fill="url(#g)"/><path fill="url(#h)" d="M369.315 263.522c-7.332 0-13.259-3.049-13.259-7.777 0-54.849 44.64-99.489 99.49-99.489a13.247 13.247 0 0 1 13.258 13.259 13.247 13.247 0 0 1-13.259 13.258c-40.22 0-72.938 32.718-72.938 72.938 0 4.728-5.926 7.777-13.258 7.777z"/><path fill="#842123" d="M215.217 420.19c1.336-29.326 20.83-48.511 43.475-48.511 21.446 0 38.027 21.891 38.644 49.093.583-30.422-17.575-54.78-41.282-54.78-23.708 0-45.017 20.727-46.456 52.074-1.439 31.347 17.027 47.38 41.248 47.38h1.782c-22.063-.548-38.713-16.41-37.377-45.222zm309.977 0c-1.336-29.326-20.83-48.511-43.475-48.511-21.446 0-38.027 21.891-38.644 49.093-.582-30.422 17.575-54.78 41.282-54.78 24.222 0 45.017 20.727 46.456 52.074 1.439 31.347-17.027 47.38-41.248 47.38h-1.782c22.063-.548 38.713-16.41 37.377-45.222l.034-.034"/></g></g></svg>
